public/img/close-modal.svg

<svg width="24" height="24" viewBox="0 0 24 24" fill="none" xmlns="http://www.w3.org/2000/svg">
<path d="M23.5702 2.94632L14.7314 11.7852L23.5702 20.624L20.6239 23.5703L11.7851 14.7314L2.94625 23.5703L-3.25739e-05 20.624L8.8388 11.7852L-3.25739e-05 2.94632L2.94625 4.38815e-05L11.7851 8.83888L20.6239 4.38815e-05L23.5702 2.94632Z" fill="white"/>
</svg>

<svg width="24" height="24" fill="none" xmlns="http://www.w3.org/2000/svg"><path d="M23.57 2.946l-8.839 8.84 8.84 8.838-2.947 2.946-8.839-8.839-8.839 8.84L0 20.623l8.839-8.839L0 2.946 2.946 0l8.84 8.839L20.623 0l2.946 2.946z" fill="#fff"/></svg>
